COLOR/action 16/16/path-difference.svg

<svg height="16" width="16" xmlns="http://www.w3.org/2000/svg"><path d="m4.527 5.5a5.5 5.5 0 0 0 -.027.5 5.5 5.5 0 0 0 5.5 5.5 5.5 5.5 0 0 0 .5-.025v4.025h-10v-10z" fill="#c43ac4"/><path d="m4.4999656 6a5.5 5.5 0 0 0 5.5 5.5 5.5 5.5 0 0 0 5.5000004-5.5 5.5 5.5 0 0 0 -5.5000004-5.5 5.5 5.5 0 0 0 -5.5 5.5z" fill="#1a7fd4"/><path d="m10 .5a5.5 5.5 0 0 0 -5.5 5.5 5.5 5.5 0 0 0 .0097656.2070312 5.5 5.5 0 0 1 5.4902344-5.2070312 5.5 5.5 0 0 1 5.490234 5.2929688 5.5 5.5 0 0 0 .009766-.2929688 5.5 5.5 0 0 0 -5.5-5.5z" fill="#fff" opacity=".3"/><path d="m10.000004 11.5a5.5 5.5 0 0 0 5.5-5.5000004 5.5 5.5 0 0 0 -.0098-.207031 5.5 5.5 0 0 1 -5.4902344 5.2070314 5.5 5.5 0 0 1 -5.490234-5.2929684 5.5 5.5 0 0 0 -.00977.292968 5.5 5.5 0 0 0 5.5 5.5000004z" opacity=".2"/><path d="m.5 5.5v.5h4a5.5 5.5 0 0 1 .0273438-.5zm4.0136719.7617188a5.5 5.5 0 0 0 -.0136719.2382812 5.5 5.5 0 0 0 5.5 5.5 5.5 5.5 0 0 0 .5-.025391v-.5a5.5 5.5 0 0 1 -.5.025391 5.5 5.5 0 0 1 -5.4863281-5.2382812z" fill="#fff" opacity=".3"/><path d="m4.5 5.5a5.5 5.5 0 0 0 .0136719.2617188 5.5 5.5 0 0 1 .0136719-.2617188zm-4 9.5v.5h10v-.5z" opacity=".2"/></svg>

<?xml version="1.0" encoding="UTF-8" standalone="no"?>
<svg
   xmlns:dc="http://purl.org/dc/elements/1.1/"
   xmlns:cc="http://creativecommons.org/ns#"
   xmlns:rdf="http://www.w3.org/1999/02/22-rdf-syntax-ns#"
   xmlns:svg="http://www.w3.org/2000/svg"
   xmlns="http://www.w3.org/2000/svg"
   xmlns:sodipodi="http://sodipodi.sourceforge.net/DTD/sodipodi-0.dtd"
   xmlns:inkscape="http://www.inkscape.org/namespaces/inkscape"
   height="16"
   width="16"
   version="1.1"
   id="svg6"
   sodipodi:docname="path-difference.svg"
   inkscape:version="0.92.4 (5da689c313, 2019-01-14)">
  <metadata
     id="metadata12">
    <rdf:RDF>
      <cc:Work
         rdf:about="">
        <dc:format>image/svg+xml</dc:format>
        <dc:type
           rdf:resource="http://purl.org/dc/dcmitype/StillImage" />
      </cc:Work>
    </rdf:RDF>
  </metadata>
  <defs
     id="defs10" />
  <sodipodi:namedview
     pagecolor="#ffffff"
     bordercolor="#666666"
     borderopacity="1"
     objecttolerance="10"
     gridtolerance="10"
     guidetolerance="10"
     inkscape:pageopacity="0"
     inkscape:pageshadow="2"
     inkscape:window-width="1920"
     inkscape:window-height="1016"
     id="namedview8"
     showgrid="false"
     inkscape:zoom="14.75"
     inkscape:cx="8"
     inkscape:cy="8"
     inkscape:window-x="0"
     inkscape:window-y="27"
     inkscape:window-maximized="1"
     inkscape:current-layer="svg6" />
  <path
     d="m4.527 5.5a5.5 5.5 0 0 0 -.027.5 5.5 5.5 0 0 0 5.5 5.5 5.5 5.5 0 0 0 .5-.025v4.025h-10v-10z"
     id="path2"
     fill="#c43ac4" />
  <path
     d="m 4.4999656,6 a 5.5,5.5 0 0 0 5.5,5.5 A 5.5,5.5 0 0 0 15.499966,6 5.5,5.5 0 0 0 9.9999656,0.5 a 5.5,5.5 0 0 0 -5.5,5.5 z"
     id="path4"
     inkscape:connector-curvature="0"
     style="fill:#1a7fd4" />
  <path
     d="M 10 0.5 A 5.5 5.5 0 0 0 4.5 6 A 5.5 5.5 0 0 0 4.5097656 6.2070312 A 5.5 5.5 0 0 1 10 1 A 5.5 5.5 0 0 1 15.490234 6.2929688 A 5.5 5.5 0 0 0 15.5 6 A 5.5 5.5 0 0 0 10 0.5 z "
     id="path822"
     style="fill:#ffffff;fill-opacity:1;opacity:0.3" />
  <path
     style="opacity:0.2;fill:#000000;fill-opacity:1"
     id="path827"
     d="m 10.000004,11.5 a 5.5,5.5 0 0 0 5.5,-5.5000004 5.5,5.5 0 0 0 -0.0098,-0.207031 A 5.5,5.5 0 0 1 9.9999696,11 5.5,5.5 0 0 1 4.5097356,5.7070316 a 5.5,5.5 0 0 0 -0.00977,0.292968 5.5,5.5 0 0 0 5.5,5.5000004 z"
     inkscape:connector-curvature="0" />
  <path
     d="M 0.5 5.5 L 0.5 6 L 4.5 6 A 5.5 5.5 0 0 1 4.5273438 5.5 L 0.5 5.5 z M 4.5136719 6.2617188 A 5.5 5.5 0 0 0 4.5 6.5 A 5.5 5.5 0 0 0 10 12 A 5.5 5.5 0 0 0 10.5 11.974609 L 10.5 11.474609 A 5.5 5.5 0 0 1 10 11.5 A 5.5 5.5 0 0 1 4.5136719 6.2617188 z "
     id="path829"
     style="fill:#ffffff;fill-opacity:1;opacity:0.3" />
  <path
     d="M 4.5 5.5 A 5.5 5.5 0 0 0 4.5136719 5.7617188 A 5.5 5.5 0 0 1 4.5273438 5.5 L 4.5 5.5 z M 0.5 15 L 0.5 15.5 L 10.5 15.5 L 10.5 15 L 0.5 15 z "
     id="path834"
     style="fill:#000000;fill-opacity:1;opacity:0.2" />
</svg>
